;FLAVOR:Marlin
;TIME:623
;Filament used: 5.81023m
;Layer height: 2
;Generated with Cura_SteamEngine 1.2.3
M140 S70
M104 S250
M109 S250
G28
G1 Z50.00 F400
G92 E0
G1 F200 E3
G92 E0
M132 X Y Z A
M907 X100 Y100 Z50 A100
;LAYER_COUNT:15
;LAYER:0
M107
M204 S2000
G0 F1384.6 X-26.3 Y18.222 Z0.3
;TYPE:SKIRT
G1 F1500 X-26.29 Y-18.465 E1.83032
G1 X-26.255 Y-19.04 E1.85906
G1 X-26.138 Y-20.008 E1.90771
G1 X-26.024 Y-20.617 E1.93862
G1 X-25.761 Y-21.378 E1.97879
G1 X-25.193 Y-22.659 E2.0487
G1 X-24.906 Y-23.207 E2.07956
G1 X-24.543 Y-23.724 E2.11108
G1 X-24.083 Y-24.295 E2.14766
G1 X-23.664 Y-24.752 E2.17859
G1 X-23.369 Y-25.012 E2.19821
G1 X-22.341 Y-25.846 E2.26425
G1 X-22.11 Y-26.022 E2.27874
G1 X14.014 Y-51.868 E4.49476
G1 X14.797 Y-52.323 E4.53994
G1 X15.387 Y-52.595 E4.57236
G1 X15.965 Y-52.818 E4.60326
G1 X16.514 Y-52.954 E4.63148
G1 X17.786 Y-53.192 E4.69604
G1 X18.64 Y-53.274 E4.73885
G1 X21.461 Y-53.291 E4.87959
G1 X22.079 Y-53.255 E4.91047
G1 X22.688 Y-53.139 E4.9414
G1 X23.276 Y-52.946 E4.97228
G1 X23.835 Y-52.679 E5.00318
G1 X24.355 Y-52.342 E5.0341
G1 X24.827 Y-51.941 E5.065
G1 X25.243 Y-51.483 E5.09587
G1 X25.597 Y-50.975 E5.12676
G1 X25.883 Y-50.425 E5.15768
G1 X26.096 Y-49.843 E5.1886
G1 X26.231 Y-49.239 E5.21948
G1 X26.29 Y-48.491 E5.25692
G1 X26.291 Y48.491 E10.09537
G1 X26.251 Y49.109 E10.12626
G1 X26.132 Y49.717 E10.15717
G1 X25.935 Y50.304 E10.18806
G1 X25.665 Y50.861 E10.21894
G1 X25.325 Y51.379 E10.24986
G1 X24.921 Y51.849 E10.28078
G1 X24.46 Y52.262 E10.31166
G1 X23.95 Y52.613 E10.34254
G1 X23.399 Y52.896 E10.37345
G1 X22.816 Y53.105 E10.40435
G1 X22.211 Y53.237 E10.43524
G1 X21.412 Y53.29 E10.47519
G1 X18.087 Y53.235 E10.6411
G1 X17.469 Y53.185 E10.67203
G1 X16.975 Y53.086 E10.69717
G1 X16.253 Y52.901 E10.73435
G1 X15.393 Y52.591 E10.77996
G1 X14.629 Y52.23 E10.82212
G1 X13.889 Y51.795 E10.86494
G1 X-22.541 Y25.756 E13.09898
G1 X-23.061 Y25.327 E13.13262
G1 X-23.904 Y24.524 E13.1907
G1 X-24.324 Y24.068 E13.22163
G1 X-24.618 Y23.663 E13.2466
G1 X-24.998 Y23.078 E13.2814
G1 X-25.301 Y22.538 E13.31229
G1 X-25.45 Y22.195 E13.33095
G1 X-25.889 Y21.06 E13.39166
G1 X-26.074 Y20.469 E13.42256
G1 X-26.197 Y19.709 E13.46097
G1 X-26.285 Y18.604 E13.51627
G1 X-26.3 Y18.222 E13.53534
G0 F1384.6 X-25.9 Y18.222
G1 F1500 X-25.89 Y-18.465 E15.36567
G1 X-25.858 Y-18.992 E15.39201
G1 X-25.741 Y-19.96 E15.44065
G1 X-25.631 Y-20.543 E15.47025
G1 X-25.395 Y-21.216 E15.50583
G1 X-24.827 Y-22.497 E15.57574
G1 X-24.551 Y-23.021 E15.60529
G1 X-24.231 Y-23.473 E15.63292
G1 X-23.771 Y-24.044 E15.6695
G1 X-23.369 Y-24.48 E15.69909
G1 X-23.117 Y-24.701 E15.71581
G1 X-22.089 Y-25.535 E15.78185
G1 X-21.877 Y-25.696 E15.79513
G1 X14.247 Y-51.542 E18.01116
G1 X14.965 Y-51.96 E18.05261
G1 X15.555 Y-52.232 E18.08502
G1 X16.109 Y-52.443 E18.11459
G1 X16.588 Y-52.561 E18.13921
G1 X17.86 Y-52.799 E18.20377
G1 X18.642 Y-52.874 E18.24296
G1 X21.463 Y-52.891 E18.3837
G1 X22.055 Y-52.855 E18.41329
G1 X22.637 Y-52.739 E18.4429
G1 X23.198 Y-52.546 E18.4725
G1 X23.727 Y-52.28 E18.50204
G1 X24.216 Y-51.944 E18.53164
G1 X24.656 Y-51.546 E18.56124
G1 X25.038 Y-51.093 E18.5908
G1 X25.356 Y-50.592 E18.62041
G1 X25.603 Y-50.053 E18.64999
G1 X25.776 Y-49.486 E18.67956
G1 X25.871 Y-48.901 E18.70913
G1 X25.89 Y-48.491 E18.72961
G1 X25.891 Y48.491 E23.56806
G1 X25.851 Y49.083 E23.59766
G1 X25.732 Y49.663 E23.6272
G1 X25.536 Y50.223 E23.6568
G1 X25.266 Y50.751 E23.68639
G1 X24.928 Y51.238 E23.71596
G1 X24.527 Y51.675 E23.74555
G1 X24.072 Y52.055 E23.77513
G1 X23.569 Y52.369 E23.80471
G1 X23.029 Y52.614 E23.83429
G1 X22.46 Y52.783 E23.86391
G1 X21.875 Y52.874 E23.89344
G1 X21.418 Y52.89 E23.91626
G1 X18.093 Y52.835 E24.08217
G1 X17.502 Y52.786 E24.11175
G1 X17.074 Y52.698 E24.13355
G1 X16.352 Y52.513 E24.17074
G1 X15.564 Y52.229 E24.21253
G1 X14.8 Y51.868 E24.25468
G1 X14.121 Y51.47 E24.29395
G1 X-22.309 Y25.431 E26.52799
G1 X-22.785 Y25.037 E26.55882
G1 X-23.628 Y24.234 E26.6169
G1 X-24.029 Y23.797 E26.64649
G1 X-24.283 Y23.445 E26.66815
G1 X-24.663 Y22.86 E26.70295
G1 X-24.952 Y22.342 E26.73254
G1 X-25.077 Y22.05 E26.74839
G1 X-25.516 Y20.915 E26.8091
G1 X-25.692 Y20.349 E26.83868
G1 X-25.798 Y19.677 E26.87262
G1 X-25.886 Y18.572 E26.92792
G1 X-25.9 Y18.222 E26.94539
G0 F1384.6 X-25.5 Y18.222
G1 F1500 X-25.49 Y-18.465 E28.77572
G1 X-25.461 Y-18.944 E28.79966
G1 X-25.344 Y-19.912 E28.8483
G1 X-25.237 Y-20.467 E28.8765
G1 X-25.03 Y-21.053 E28.90751
G1 X-24.462 Y-22.334 E28.97742
G1 X-24.197 Y-22.834 E29.00565
G1 X-23.92 Y-23.222 E29.02943
G1 X-23.46 Y-23.793 E29.06602
G1 X-22.865 Y-24.39 E29.10807
G1 X-21.837 Y-25.224 E29.17411
G1 X-21.645 Y-25.371 E29.18617
G1 X14.479 Y-51.217 E31.4022
G1 X15.132 Y-51.597 E31.43989
G1 X15.722 Y-51.869 E31.4723
G1 X16.251 Y-52.068 E31.5005
G1 X16.661 Y-52.168 E31.52155
G1 X17.933 Y-52.406 E31.58612
G1 X18.645 Y-52.474 E31.6218
G1 X21.466 Y-52.491 E31.76254
G1 X22.03 Y-52.454 E31.79074
G1 X22.583 Y-52.339 E31.81892
G1 X23.115 Y-52.146 E31.84716
G1 X23.614 Y-51.88 E31.87537
G1 X24.071 Y-51.547 E31.90358
G1 X24.476 Y-51.153 E31.93177
G1 X24.821 Y-50.705 E31.95998
G1 X25.1 Y-50.214 E31.98815
G1 X25.307 Y-49.687 E32.0164
G1 X25.437 Y-49.137 E32.04459
G1 X25.49 Y-48.491 E32.07693
G1 X25.491 Y48.491 E36.91538
G1 X25.451 Y49.055 E36.94359
G1 X25.332 Y49.608 E36.97181
G1 X25.136 Y50.138 E37.00001
G1 X24.868 Y50.635 E37.02818
G1 X24.532 Y51.09 E37.05639
G1 X24.135 Y51.493 E37.08462
G1 X23.685 Y51.835 E37.11282
G1 X23.192 Y52.111 E37.141
G1 X22.664 Y52.315 E37.16924
G1 X22.114 Y52.442 E37.19741
G1 X21.425 Y52.49 E37.23186
G1 X18.1 Y52.435 E37.39777
G1 X17.537 Y52.386 E37.42597
G1 X17.173 Y52.311 E37.44451
G1 X16.451 Y52.126 E37.48169
G1 X15.735 Y51.868 E37.51966
G1 X14.971 Y51.507 E37.56182
G1 X14.354 Y51.144 E37.59753
G1 X-22.076 Y25.105 E39.83157
G1 X-22.509 Y24.747 E39.8596
G1 X-23.352 Y23.944 E39.91769
G1 X-23.733 Y23.526 E39.94591
G1 X-23.947 Y23.227 E39.96425
G1 X-24.327 Y22.642 E39.99905
G1 X-24.704 Y21.906 E40.04031
G1 X-25.143 Y20.771 E40.10102
G1 X-25.309 Y20.231 E40.12921
G1 X-25.399 Y19.646 E40.15874
G1 X-25.487 Y18.541 E40.21404
G1 X-25.5 Y18.222 E40.22997
G0 F1384.6 X-25.1 Y18.222
G1 F1500 X-25.09 Y-18.465 E42.06029
G1 X-25.064 Y-18.896 E42.08183
G1 X-24.947 Y-19.864 E42.13048
G1 X-24.843 Y-20.39 E42.15723
G1 X-24.664 Y-20.891 E42.18377
G1 X-24.096 Y-22.172 E42.25368
G1 X-23.843 Y-22.645 E42.28044
G1 X-23.608 Y-22.971 E42.30049
G1 X-23.148 Y-23.542 E42.33707
G1 X-22.613 Y-24.08 E42.37492
G1 X-21.585 Y-24.914 E42.44097
G1 X-21.412 Y-25.046 E42.45182
G1 X14.712 Y-50.892 E44.66785
G1 X15.3 Y-51.233 E44.70176
G1 X15.89 Y-51.505 E44.73417
G1 X16.392 Y-51.693 E44.76092
G1 X16.735 Y-51.775 E44.77851
G1 X18.007 Y-52.013 E44.84307
G1 X18.647 Y-52.074 E44.87515
G1 X21.468 Y-52.091 E45.01589
G1 X22.003 Y-52.054 E45.04264
G1 X22.527 Y-51.938 E45.06942
G1 X23.028 Y-51.746 E45.09619
G1 X23.494 Y-51.482 E45.12291
G1 X23.916 Y-51.151 E45.14966
G1 X24.284 Y-50.761 E45.17642
G1 X24.59 Y-50.32 E45.2032
G1 X24.828 Y-49.84 E45.22992
G1 X24.991 Y-49.329 E45.25668
G1 X25.077 Y-48.799 E45.28347
G1 X25.09 Y-48.491 E45.29885
G1 X25.091 Y48.491 E50.1373
G1 X25.051 Y49.026 E50.16407
G1 X24.932 Y49.549 E50.19083
G1 X24.737 Y50.048 E50.21756
G1 X24.469 Y50.513 E50.24433
G1 X24.136 Y50.933 E50.27107
G1 X23.744 Y51.299 E50.29783
G1 X23.302 Y51.602 E50.32457
G1 X22.819 Y51.837 E50.35136
G1 X22.308 Y51.997 E50.37808
G1 X21.778 Y52.08 E50.40484
G1 X21.431 Y52.091 E50.42216
G1 X18.106 Y52.036 E50.58807
G1 X17.572 Y51.987 E50.61482
G1 X17.272 Y51.923 E50.63013
G1 X16.55 Y51.738 E50.66731
G1 X15.906 Y51.506 E50.70146
G1 X15.142 Y51.145 E50.74362
G1 X14.587 Y50.819 E50.77573
G1 X-21.843 Y24.78 E53.00977
G1 X-22.233 Y24.458 E53.03501
G1 X-23.076 Y23.655 E53.09309
G1 X-23.436 Y23.257 E53.11986
G1 X-23.612 Y23.009 E53.13504
G1 X-23.992 Y22.424 E53.16984
G1 X-24.331 Y21.762 E53.20694
G1 X-24.77 Y20.627 E53.26766
G1 X-24.925 Y20.113 E53.29444
G1 X-25.001 Y19.614 E53.31962
G1 X-25.089 Y18.509 E53.37493
G1 X-25.1 Y18.222 E53.38926
G0 F1384.6 X-24.7 Y18.222
G1 F1500 X-24.69 Y-18.465 E55.21958
G1 X-24.667 Y-18.848 E55.23872
G1 X-24.55 Y-19.816 E55.28737
G1 X-24.45 Y-20.312 E55.31261
G1 X-24.298 Y-20.729 E55.33475
G1 X-23.73 Y-22.01 E55.40466
G1 X-23.49 Y-22.455 E55.42989
G1 X-23.297 Y-22.721 E55.44628
G1 X-22.837 Y-23.292 E55.48286
G1 X-22.361 Y-23.769 E55.51648
G1 X-21.333 Y-24.603 E55.58253
G1 X-21.179 Y-24.72 E55.59218
G1 X14.945 Y-50.566 E57.8082
G1 X15.467 Y-50.87 E57.83834
G1 X16.057 Y-51.142 E57.87075
G1 X16.532 Y-51.317 E57.896
G1 X16.808 Y-51.381 E57.91014
G1 X18.08 Y-51.619 E57.9747
G1 X18.65 Y-51.674 E58.00327
G1 X21.471 Y-51.691 E58.14401
G1 X21.975 Y-51.654 E58.16923
G1 X22.467 Y-51.538 E58.19444
G1 X22.935 Y-51.346 E58.21968
G1 X23.366 Y-51.083 E58.24487
G1 X23.751 Y-50.755 E58.2701
G1 X24.08 Y-50.371 E58.29533
G1 X24.343 Y-49.939 E58.32056
G1 X24.536 Y-49.472 E58.34577
G1 X24.652 Y-48.98 E58.37099
G1 X24.69 Y-48.491 E58.39546
G1 X24.691 Y48.491 E63.23392
G1 X24.651 Y48.995 E63.25914
G1 X24.532 Y49.486 E63.28434
G1 X24.338 Y49.953 E63.30957
G1 X24.072 Y50.383 E63.3348
G1 X23.742 Y50.766 E63.36002
G1 X23.355 Y51.092 E63.38527
G1 X22.922 Y51.353 E63.41049
G1 X22.454 Y51.543 E63.43569
G1 X21.961 Y51.656 E63.46092
G1 X21.438 Y51.691 E63.48707
G1 X18.113 Y51.636 E63.65298
G1 X17.372 Y51.536 E63.69029
G1 X16.65 Y51.351 E63.72747
G1 X16.077 Y51.144 E63.75786
G1 X15.313 Y50.783 E63.80002
G1 X14.819 Y50.493 E63.8286
G1 X-21.611 Y24.454 E66.06264
G1 X-21.957 Y24.168 E66.08504
G1 X-22.8 Y23.365 E66.14312
G1 X-23.277 Y22.791 E66.18036
G1 X-23.657 Y22.206 E66.21516
G1 X-23.958 Y21.617 E66.24816
G1 X-24.397 Y20.482 E66.30887
G1 X-24.541 Y19.998 E66.33407
G1 X-24.602 Y19.582 E66.35504
G1 X-24.69 Y18.477 E66.41035
G1 X-24.7 Y18.222 E66.42308
G0 F1384.6 X-20.9 Y16.825
;TYPE:WALL-INNER
G1 F1500 X-20.9 Y16.649 E66.43186
G1 X-20.9 Y16.574 E66.4356
G1 X-20.9 Y-16.476 E68.08447
G1 X-20.9 Y-17.089 E68.11505
G1 X-20.9 Y-17.272 E68.12418
G1 X-20.9 Y-17.334 E68.12728
G1 X-20.885 Y-17.272
G1 X-20.803 Y-17.089
G1 X-20.518 Y-16.547 E68.14659
G1 X-20.493 Y-16.5 E68.14924
G1 X-20.192 Y-16.107 E68.17394
G1 X-20.073 Y-15.995 E68.18209
G1 X-19.459 Y-15.491 E68.22172
G1 X-19.298 Y-15.384 E68.23137
G1 X-19.149 Y-15.327 E68.23933
G1 X-18.728 Y-15.117 E68.2628
G1 X-18.359 Y-15.002 E68.28208
G1 X-17.885 Y-14.919 E68.30609
G1 X-17.248 Y-14.913 E68.33787
G1 X-16.638 Y-15.002 E68.36863
G1 X-16.136 Y-15.179 E68.39518
G1 X-15.909 Y-15.283 E68.40764
G1 X-15.341 Y-15.627 E68.44077
G1 X-15.222 Y-15.717 E68.44821
G1 X-15.138 Y-15.808 E68.45439
G1 X-14.781 Y-16.139 E68.47868
G1 X-14.429 Y-16.634 E68.50898
G1 X-14.391 Y-16.688 E68.51228
G1 X-14.336 Y-16.824 E68.5196
G1 X-14.121 Y-17.255 E68.54363
G1 X-14.067 Y-17.463 E68.55435
G1 X-14.001 Y-17.714 E68.5673
G1 X-13.956 Y-17.886 E68.57617
G1 X-13.908 Y-18.392 E68.60152
G1 X-13.897 Y-18.506 E68.60724
G1 X-13.902 Y-18.555 E68.60969
G1 X-13.905 Y-18.585 E68.6112
G1 X-13.991 Y-19.314 E68.64782
G1 X-14.055 Y-19.515 E68.65834
G1 X-14.367 Y-20.255 E68.69841
G1 X-14.46 Y-20.424 E68.70803
G1 X-14.571 Y-20.55 E68.71641
G1 X-14.841 Y-20.925 E68.73947
G1 X-15.121 Y-21.205 E68.75922
G1 X-15.651 Y-21.586 E68.79179
G1 X-16.473 Y-21.951 E68.83666
G1 X-16.626 Y-21.973 E68.84437
G1 X-17.1 Y-22.081 E68.86862
G1 X-17.658 Y-22.086 E68.89646
G1 X-17.774 Y-22.087 E68.90225
G1 X-17.918 Y-22.056 E68.9096
G1 X-18.396 Y-21.988 E68.93369
G1 X-18.545 Y-21.934 E68.94159
G1 X-18.422 Y-22.022
G1 X-18.073 Y-22.272 E68.95089
G1 X-17.964 Y-22.35 E68.95478
G1 X-17.87 Y-22.417 E68.96002
G1 X16.787 Y-47.251 E71.08714
G1 X17.087 Y-47.443 E71.10491
G1 X17.576 Y-47.669 E71.13178
G1 X18.803 Y-47.897 E71.19405
G1 X20.7 Y-47.9 E71.28869
G1 X20.9 Y-47.9 E71.29867
G1 X20.9 Y-47.7 E71.30513
G1 X20.9 Y47.699 E76.0646
G1 X20.9 Y47.899 E76.07458
G1 X20.7 Y47.899 E76.08104
G1 X18.755 Y47.895 E76.17808
G1 X18.274 Y47.855 E76.20216
G1 X17.596 Y47.678 E76.23712
G1 X17.089 Y47.446 E76.26493
G1 X16.79 Y47.255 E76.28264
G1 X-17.863 Y22.475 E78.40803
G1 X-18.049 Y22.342 E78.41944
G1 X-18.413 Y22.081 E78.44178
G1 X-18.524 Y22.001 E78.44861
G1 X-18.373 Y22.026
G1 X-17.9 Y22.134 E78.45921
G1 X-17.671 Y22.136 E78.46867
G1 X-17.237 Y22.14 E78.49032
G1 X-16.473 Y22.001 E78.52906
G1 X-15.821 Y21.741 E78.56408
G1 X-15.616 Y21.6 E78.5765
G1 X-15.558 Y21.542 E78.58059
G1 X-14.827 Y20.969 E78.62693
G1 X-14.525 Y20.585 E78.6513
G1 X-14.154 Y19.881 E78.691
G1 X-14.089 Y19.678 E78.70164
G1 X-13.926 Y18.892 E78.74168
G1 X-13.916 Y18.802 E78.7462
G1 X-13.908 Y18.729 E78.74986
G1 X-13.923 Y18.125 E78.78001
G1 X-13.944 Y18.017 E78.7855
G1 X-14.017 Y17.642 E78.80456
G1 X-14.176 Y17.204 E78.8278
G1 X-14.235 Y17.045 E78.83626
G1 X-14.426 Y16.702 E78.85585
G1 X-14.538 Y16.501 E78.86733
G1 X-15.074 Y15.892 E78.90781
G1 X-15.23 Y15.769 E78.91772
G1 X-15.782 Y15.388 E78.95118
G1 X-16.266 Y15.171 E78.97764
G1 X-16.886 Y15.008 E79.00963
G1 X-17.536 Y14.947 E79.0422
G1 X-18.617 Y15.182 E79.09739
G1 X-18.786 Y15.204 E79.10589
G1 X-19.012 Y15.289 E79.11794
G1 X-19.548 Y15.589 E79.14858
G1 X-19.951 Y15.932 E79.17498
G1 X-20.128 Y16.108 E79.18744
G1 X-20.506 Y16.59 E79.218
G1 X-20.552 Y16.649 E79.22115
G1 X-20.645 Y16.825 E79.22666
G1 X-20.9 Y17.393 E79.25772
G1 X-20.9 Y16.825 E79.26628
G0 F1384.6 X-20.8 Y16.825
G0 X-19.978 Y15.903
G0 X-19.57 Y15.557
G0 X-18.795 Y15.166
G0 X-17.538 Y14.908
G0 X-16.88 Y14.969
G0 X-16.253 Y15.134
G0 X-15.763 Y15.354
G0 X-14.199 Y16.523
G0 X-14.1 Y16.52
G1 F1500 X-14.06 Y17.03 E79.28266
G1 X-14.049 Y17.158 E79.28455
G1 X-13.937 Y17.623 E79.29127
G1 X-13.847 Y17.997
G1 X-13.813 Y18.073
G1 X-13.581 Y18.579 E79.30888
G1 X-13.551 Y18.645 E79.31232
G1 X-13.484 Y18.79 E79.32029
G1 X-12.977 Y19.507 E79.3641
G1 X-12.206 Y20.216 E79.41636
G1 X10.849 Y36.704 E80.83045
G1 X11.656 Y37.162 E80.87674
G1 X12.564 Y37.45 E80.92427
G1 X12.75 Y37.472 E80.93361
G1 X13.823 Y37.523 E80.98721
G1 X14.011 Y37.518 E80.99659
G1 X14.941 Y37.316 E81.04407
G1 X15.812 Y36.924 E81.09172
G1 X15.964 Y36.816 E81.10102
G1 X16.795 Y36.14 E81.15447
G1 X16.938 Y36.006 E81.16424
G1 X17.573 Y35.076 E81.22043
G1 X17.881 Y34.358 E81.2594
G1 X18.075 Y33.438 E81.30631
G1 X18.1 Y32.96 E81.33019
G1 X18.1 Y-32.965 E84.6192
G1 X17.957 Y-34.053 E84.67395
G1 X17.89 Y-34.259 E84.68476
G1 X17.621 Y-34.963 E84.72236
G1 X17.234 Y-35.614 E84.76014
G1 X16.906 Y-36.022 E84.78626
G1 X15.829 Y-36.899 E84.85555
G1 X14.942 Y-37.297 E84.90406
G1 X14.189 Y-37.473 E84.94263
G1 X13.289 Y-37.518 E84.98759
G1 X12.562 Y-37.432 E85.02412
G1 X11.653 Y-37.142 E85.07172
G1 X10.846 Y-36.683 E85.11804
G1 X-12.209 Y-20.164 E86.53303
G1 X-12.949 Y-19.485 E86.58313
G1 X-13.294 Y-19.03 E86.61162
G1 X-13.51 Y-18.627 E86.63443
G1 X-13.524 Y-18.6 E86.63591
G1 X-13.679 Y-18.37 E86.64367
G1 X-13.857 Y-17.852 E86.653
G1 X-13.912 Y-17.692
G1 X-13.986 Y-17.442
G1 X-14.009 Y-17.243
G1 X-14.062 Y-16.793 E86.6648
G1 X-14.079 Y-16.65 E86.66769
G1 X-14.1 Y-16.481 E86.67516
G1 X-14.1 Y-16.414 E86.67833
G1 X-14.1 Y16.52 E88.32142
G0 F1384.6 X-13.653 Y17.095
;TYPE:WALL-OUTER
G1 F1500 X-13.467 Y17.866 E88.36099
G1 X-13.136 Y18.59 E88.4007
G1 X-12.675 Y19.241 E88.4405
G1 X-11.953 Y19.905 E88.48944
G1 X11.065 Y36.366 E89.90125
G1 X11.817 Y36.793 E89.94439
G1 X12.649 Y37.057 E89.98794
G1 X12.783 Y37.073 E89.99467
G1 X13.827 Y37.123 E90.04681
G1 X13.962 Y37.119 E90.05355
G1 X14.815 Y36.934 E90.0971
G1 X15.612 Y36.575 E90.14071
G1 X15.722 Y36.497 E90.14744
G1 X16.531 Y35.839 E90.19946
G1 X16.632 Y35.744 E90.20638
G1 X17.221 Y34.882 E90.25847
G1 X17.498 Y34.237 E90.29349
G1 X17.677 Y33.386 E90.33687
G1 X17.7 Y32.949 E90.35871
G1 X17.7 Y-32.939 E93.64587
