;FLAVOR:Marlin
;TIME:949
;Filament used: 7.27136m
;Layer height: 0.6
;Generated with Cura_SteamEngine 1.2.3
M140 S70
M104 S250
M109 S250
G28
G1 Z50.00 F400
G92 E0
G1 F200 E3
G92 E0
M132 X Y Z A
M907 X100 Y100 Z50 A100
;LAYER_COUNT:10
;LAYER:0
M107
M204 S2000
G0 F1384.6 X-33.851 Y7.83 Z0.3
;TYPE:SKIRT
G1 F1500 X-33.92 Y7.546 E0.01458
G1 X-34.332 Y5.572 E0.11519
G1 X-34.408 Y5.079 E0.14007
G1 X-34.555 Y3.641 E0.21219
G1 X-34.557 Y3.626 E0.21294
G1 X-34.73 Y1.88 E0.30048
G1 X-34.753 Y1.403 E0.3243
G1 X-34.751 Y-.852 E0.43681
G1 X-34.734 Y-1.251 E0.45673
G1 X-34.415 Y-5.033 E0.64609
G1 X-34.326 Y-5.635 E0.67645
G1 X-33.625 Y-8.91 E0.84354
G1 X-33.496 Y-9.389 E0.86829
G1 X-32.586 Y-12.188 E1.01512
G1 X-32.412 Y-12.643 E1.03943
G1 X-31.307 Y-15.145 E1.17588
G1 X-31.107 Y-15.546 E1.19824
G1 X-29.407 Y-18.59 E1.37218
G1 X-29.1 Y-19.071 E1.40065
G1 X-27.116 Y-21.803 E1.5691
G1 X-26.781 Y-22.214 E1.59556
G1 X-24.64 Y-24.565 E1.7542
G1 X-24.284 Y-24.917 E1.77917
G1 X-21.929 Y-27.015 E1.93653
G1 X-21.551 Y-27.319 E1.96073
G1 X-19.144 Y-29.062 E2.10899
G1 X-18.714 Y-29.339 E2.13451
G1 X-15.88 Y-30.962 E2.29744
G1 X-15.428 Y-31.191 E2.32272
G1 X-12.566 Y-32.45 E2.47871
G1 X-12.1 Y-32.626 E2.50356
G1 X-9.099 Y-33.589 E2.6608
G1 X-8.629 Y-33.714 E2.68507
G1 X-5.756 Y-34.324 E2.8316
G1 X-5.251 Y-34.404 E2.85711
G1 X-1.916 Y-34.748 E3.02437
G1 X-1.4 Y-34.773 E3.05015
G1 X1.744 Y-34.757 E3.207
G1 X2.225 Y-34.73 E3.23104
G1 X5.116 Y-34.424 E3.37608
G1 X5.618 Y-34.344 E3.40144
G1 X8.913 Y-33.637 E3.56957
G1 X9.389 Y-33.509 E3.59416
G1 X12.166 Y-32.607 E3.73983
G1 X12.637 Y-32.426 E3.765
G1 X15.666 Y-31.076 E3.93045
G1 X16.135 Y-30.835 E3.95676
G1 X18.879 Y-29.23 E4.11535
G1 X19.277 Y-28.97 E4.13907
G1 X21.665 Y-27.235 E4.28633
G1 X22.052 Y-26.923 E4.31114
G1 X24.352 Y-24.857 E4.46538
G1 X24.703 Y-24.507 E4.49011
G1 X26.819 Y-22.169 E4.64743
G1 X27.137 Y-21.778 E4.67257
G1 X28.99 Y-19.239 E4.82939
G1 X29.265 Y-18.818 E4.85448
G1 X30.838 Y-16.107 E5.01085
G1 X31.066 Y-15.662 E5.0358
G1 X32.33 Y-12.844 E5.18988
G1 X32.504 Y-12.396 E5.21386
G1 X33.282 Y-10.058 E5.33679
G1 X33.396 Y-9.661 E5.3574
G1 X34.134 Y-6.582 E5.51536
G1 X34.227 Y-6.076 E5.54103
G1 X34.656 Y-2.746 E5.70854
G1 X34.694 Y-2.209 E5.73539
G1 X34.751 Y1.392 E5.91507
G1 X34.728 Y1.943 E5.94259
G1 X34.493 Y4.305 E6.06101
G1 X34.451 Y4.625 E6.07711
G1 X34.063 Y6.935 E6.19397
G1 X34.006 Y7.219 E6.20842
G1 X33.608 Y8.945 E6.29679
G1 X33.496 Y9.35 E6.31776
G1 X32.582 Y12.161 E6.46522
G1 X32.407 Y12.617 E6.48959
G1 X31.314 Y15.09 E6.62448
G1 X31.115 Y15.49 E6.64677
G1 X29.386 Y18.587 E6.82373
G1 X29.095 Y19.045 E6.8508
G1 X27.601 Y21.128 E6.97869
G1 X27.305 Y21.5 E7.00241
G1 X24.709 Y24.452 E7.19853
G1 X24.303 Y24.861 E7.22728
G1 X21.966 Y26.949 E7.38363
G1 X21.586 Y27.256 E7.40801
G1 X19.264 Y28.94 E7.55111
G1 X18.865 Y29.2 E7.57487
G1 X16.195 Y30.758 E7.7291
G1 X15.754 Y30.986 E7.75386
G1 X12.786 Y32.328 E7.91637
G1 X12.288 Y32.52 E7.943
G1 X9.136 Y33.542 E8.10831
G1 X8.653 Y33.671 E8.13325
G1 X5.76 Y34.285 E8.2808
G1 X5.255 Y34.365 E8.30631
G1 X1.916 Y34.709 E8.47377
G1 X1.4 Y34.734 E8.49955
G1 X-1.744 Y34.718 E8.6564
G1 X-2.221 Y34.692 E8.68024
G1 X-4.973 Y34.403 E8.81829
G1 X-5.459 Y34.326 E8.84284
G1 X-8.884 Y33.606 E9.01745
G1 X-9.393 Y33.47 E9.04373
G1 X-12.311 Y32.513 E9.19694
G1 X-12.767 Y32.337 E9.22133
G1 X-15.506 Y31.118 E9.3709
G1 X-15.952 Y30.891 E9.39587
G1 X-18.785 Y29.257 E9.55903
G1 X-19.21 Y28.981 E9.58431
G1 X-21.648 Y27.208 E9.73471
G1 X-22.045 Y26.886 E9.76021
G1 X-24.521 Y24.646 E9.92679
G1 X-24.876 Y24.289 E9.95191
G1 X-26.937 Y21.988 E10.10602
G1 X-27.302 Y21.526 E10.13539
G1 X-29.513 Y18.348 E10.32854
G1 X-29.74 Y17.99 E10.34969
G1 X-30.753 Y16.219 E10.45148
G1 X-30.964 Y15.804 E10.47471
G1 X-32.42 Y12.565 E10.65188
G1 X-32.598 Y12.107 E10.67639
G1 X-33.041 Y10.77 E10.74666
G1 X-33.115 Y10.525 E10.75943
G1 X-33.851 Y7.83 E10.89881
G0 F1384.6 X-33.466 Y7.724
G1 F1500 X-33.528 Y7.464 E10.91214
G1 X-33.94 Y5.49 E11.01275
G1 X-34.01 Y5.038 E11.03557
G1 X-34.157 Y3.6 E11.10768
G1 X-34.159 Y3.587 E11.10834
G1 X-34.332 Y1.841 E11.19587
G1 X-34.353 Y1.403 E11.21775
G1 X-34.351 Y-.852 E11.33025
G1 X-34.335 Y-1.218 E11.34853
G1 X-34.016 Y-5 E11.53789
G1 X-33.935 Y-5.551 E11.56567
G1 X-33.234 Y-8.826 E11.73276
G1 X-33.115 Y-9.265 E11.75545
G1 X-32.205 Y-12.064 E11.90229
G1 X-32.046 Y-12.482 E11.9246
G1 X-30.941 Y-14.984 E12.06106
G1 X-30.758 Y-15.351 E12.08152
G1 X-29.058 Y-18.395 E12.25546
G1 X-28.776 Y-18.835 E12.28154
G1 X-26.792 Y-21.567 E12.44999
G1 X-26.485 Y-21.945 E12.47428
G1 X-24.344 Y-24.296 E12.63292
G1 X-24.018 Y-24.618 E12.65578
G1 X-21.663 Y-26.716 E12.81314
G1 X-21.317 Y-26.995 E12.83531
G1 X-18.91 Y-28.738 E12.98357
G1 X-18.516 Y-28.992 E13.00696
G1 X-15.682 Y-30.615 E13.1699
G1 X-15.267 Y-30.825 E13.1931
G1 X-12.405 Y-32.084 E13.34909
G1 X-11.977 Y-32.246 E13.37192
G1 X-8.976 Y-33.209 E13.52916
G1 X-8.546 Y-33.323 E13.55136
G1 X-5.673 Y-33.933 E13.69789
G1 X-5.21 Y-34.006 E13.72127
G1 X-1.875 Y-34.35 E13.88854
G1 X-1.402 Y-34.373 E13.91216
G1 X1.742 Y-34.357 E14.06902
G1 X2.183 Y-34.333 E14.09105
G1 X5.074 Y-34.027 E14.23609
G1 X5.534 Y-33.953 E14.25934
G1 X8.829 Y-33.246 E14.42747
G1 X9.265 Y-33.129 E14.44999
G1 X12.042 Y-32.227 E14.59566
G1 X12.474 Y-32.061 E14.61875
G1 X15.503 Y-30.711 E14.78419
G1 X15.934 Y-30.49 E14.80836
G1 X18.678 Y-28.885 E14.96696
G1 X19.042 Y-28.647 E14.98865
G1 X21.43 Y-26.912 E15.13592
G1 X21.784 Y-26.625 E15.15865
G1 X24.084 Y-24.559 E15.3129
G1 X24.406 Y-24.239 E15.33554
G1 X26.522 Y-21.901 E15.49287
G1 X26.814 Y-21.542 E15.51595
G1 X28.667 Y-19.003 E15.67277
G1 X28.919 Y-18.617 E15.69577
G1 X30.492 Y-15.906 E15.85214
G1 X30.701 Y-15.499 E15.87497
G1 X31.965 Y-12.681 E16.02905
G1 X32.125 Y-12.269 E16.0511
G1 X32.903 Y-9.931 E16.17403
G1 X33.007 Y-9.568 E16.19287
G1 X33.745 Y-6.489 E16.35084
G1 X33.83 Y-6.025 E16.37437
G1 X34.259 Y-2.695 E16.54188
G1 X34.294 Y-2.203 E16.56649
G1 X34.351 Y1.398 E16.74616
G1 X34.33 Y1.904 E16.77143
G1 X34.095 Y4.266 E16.88985
G1 X34.056 Y4.559 E16.9046
G1 X33.668 Y6.869 E17.02146
G1 X33.616 Y7.129 E17.03469
G1 X33.218 Y8.855 E17.12306
G1 X33.115 Y9.227 E17.14232
G1 X32.201 Y12.038 E17.28978
G1 X32.041 Y12.456 E17.31211
G1 X30.948 Y14.929 E17.44701
G1 X30.766 Y15.295 E17.4674
G1 X29.037 Y18.392 E17.64436
G1 X28.77 Y18.811 E17.66914
G1 X27.276 Y20.894 E17.79703
G1 X27.005 Y21.236 E17.8188
G1 X24.409 Y24.188 E18.01492
G1 X24.037 Y24.563 E18.04128
G1 X21.7 Y26.651 E18.19763
G1 X21.351 Y26.932 E18.21998
G1 X19.029 Y28.616 E18.36309
G1 X18.664 Y28.854 E18.38482
G1 X15.994 Y30.412 E18.53905
G1 X15.589 Y30.621 E18.56179
G1 X12.621 Y31.963 E18.7243
G1 X12.165 Y32.139 E18.74868
G1 X9.013 Y33.161 E18.91399
G1 X8.569 Y33.28 E18.93693
G1 X5.676 Y33.894 E19.08447
G1 X5.214 Y33.967 E19.10781
G1 X1.875 Y34.311 E19.27528
G1 X1.402 Y34.334 E19.2989
G1 X-1.742 Y34.318 E19.45576
G1 X-2.18 Y34.294 E19.47764
G1 X-4.932 Y34.005 E19.6157
G1 X-5.377 Y33.935 E19.63817
G1 X-8.802 Y33.215 E19.81278
G1 X-9.268 Y33.09 E19.83685
G1 X-12.186 Y32.133 E19.99006
G1 X-12.604 Y31.972 E20.01241
G1 X-15.343 Y30.753 E20.16198
G1 X-15.752 Y30.544 E20.18489
G1 X-18.585 Y28.91 E20.34806
G1 X-18.975 Y28.658 E20.37122
G1 X-21.413 Y26.885 E20.52162
G1 X-21.777 Y26.589 E20.54502
G1 X-24.253 Y24.349 E20.7116
G1 X-24.578 Y24.022 E20.7346
G1 X-26.639 Y21.721 E20.88872
G1 X-26.974 Y21.298 E20.91564
G1 X-29.185 Y18.12 E21.10878
G1 X-29.392 Y17.792 E21.12813
G1 X-30.405 Y16.021 E21.22992
G1 X-30.599 Y15.64 E21.25125
G1 X-32.055 Y12.401 E21.42842
G1 X-32.219 Y11.981 E21.45092
G1 X-32.662 Y10.644 E21.52119
G1 X-32.73 Y10.419 E21.53291
G1 X-33.466 Y7.724 E21.67229
G0 F1384.6 X-33.08 Y7.619
G1 F1500 X-33.137 Y7.382 E21.68445
G1 X-33.549 Y5.408 E21.78506
G1 X-33.612 Y4.998 E21.80575
G1 X-33.759 Y3.56 E21.87787
G1 X-33.761 Y3.547 E21.87853
G1 X-33.934 Y1.801 E21.96606
G1 X-33.953 Y1.403 E21.98594
G1 X-33.951 Y-.852 E22.09844
G1 X-33.937 Y-1.184 E22.11502
G1 X-33.618 Y-4.966 E22.30438
G1 X-33.543 Y-5.467 E22.32965
G1 X-32.842 Y-8.742 E22.49674
G1 X-32.735 Y-9.142 E22.5174
G1 X-31.825 Y-11.941 E22.66424
G1 X-31.68 Y-12.32 E22.68448
G1 X-30.575 Y-14.822 E22.82094
G1 X-30.408 Y-15.156 E22.83957
G1 X-28.708 Y-18.2 E23.01351
G1 X-28.453 Y-18.6 E23.03718
G1 X-26.469 Y-21.332 E23.20563
G1 X-26.189 Y-21.675 E23.22772
G1 X-24.048 Y-24.026 E23.38636
G1 X-23.752 Y-24.32 E23.40717
G1 X-21.397 Y-26.418 E23.56452
G1 X-21.082 Y-26.671 E23.58468
G1 X-18.675 Y-28.414 E23.73295
G1 X-18.317 Y-28.645 E23.7542
G1 X-15.483 Y-30.268 E23.91714
G1 X-15.106 Y-30.458 E23.9382
G1 X-12.244 Y-31.717 E24.09419
G1 X-11.855 Y-31.865 E24.11495
G1 X-8.854 Y-32.828 E24.27219
G1 X-8.463 Y-32.932 E24.29238
G1 X-5.59 Y-33.542 E24.43891
G1 X-5.169 Y-33.608 E24.46017
G1 X-1.834 Y-33.952 E24.62743
G1 X-1.404 Y-33.973 E24.64891
G1 X1.74 Y-33.957 E24.80577
G1 X2.141 Y-33.935 E24.82581
G1 X5.032 Y-33.629 E24.97084
G1 X5.45 Y-33.562 E24.99196
G1 X8.745 Y-32.855 E25.16009
G1 X9.142 Y-32.748 E25.18061
G1 X11.919 Y-31.846 E25.32628
G1 X12.311 Y-31.696 E25.34722
G1 X15.34 Y-30.346 E25.51266
G1 X15.732 Y-30.145 E25.53464
G1 X18.476 Y-28.54 E25.69324
G1 X18.807 Y-28.323 E25.71299
G1 X21.195 Y-26.588 E25.86025
G1 X21.517 Y-26.328 E25.8809
G1 X23.817 Y-24.262 E26.03514
G1 X24.11 Y-23.97 E26.05578
G1 X26.226 Y-21.632 E26.2131
G1 X26.491 Y-21.306 E26.23406
G1 X28.344 Y-18.767 E26.39088
G1 X28.573 Y-18.416 E26.41179
G1 X30.146 Y-15.705 E26.56816
G1 X30.336 Y-15.335 E26.58891
G1 X31.6 Y-12.517 E26.74299
G1 X31.745 Y-12.143 E26.76301
G1 X32.523 Y-9.805 E26.88594
G1 X32.618 Y-9.474 E26.90312
G1 X33.356 Y-6.395 E27.06108
G1 X33.433 Y-5.974 E27.08243
G1 X33.862 Y-2.644 E27.24994
G1 X33.894 Y-2.196 E27.27235
G1 X33.951 Y1.405 E27.45203
G1 X33.932 Y1.864 E27.47495
G1 X33.697 Y4.226 E27.59337
G1 X33.662 Y4.493 E27.6068
G1 X33.274 Y6.803 E27.72366
G1 X33.227 Y7.039 E27.73567
G1 X32.829 Y8.765 E27.82404
G1 X32.735 Y9.103 E27.84154
G1 X31.821 Y11.914 E27.98901
G1 X31.676 Y12.294 E28.0093
G1 X30.583 Y14.767 E28.14419
G1 X30.417 Y15.1 E28.16276
G1 X28.688 Y18.197 E28.33971
G1 X28.445 Y18.578 E28.36226
G1 X26.951 Y20.661 E28.49015
G1 X26.705 Y20.972 E28.50993
G1 X24.109 Y23.924 E28.70605
G1 X23.77 Y24.265 E28.73004
G1 X21.433 Y26.353 E28.88639
G1 X21.116 Y26.608 E28.90669
G1 X18.794 Y28.292 E29.04979
G1 X18.462 Y28.509 E29.06958
G1 X15.792 Y30.067 E29.22381
G1 X15.424 Y30.257 E29.24447
G1 X12.456 Y31.599 E29.40698
G1 X12.042 Y31.759 E29.42912
G1 X8.89 Y32.781 E29.59443
G1 X8.486 Y32.889 E29.6153
G1 X5.593 Y33.503 E29.76285
G1 X5.173 Y33.569 E29.78406
G1 X1.834 Y33.913 E29.95152
G1 X1.404 Y33.934 E29.973
G1 X-1.74 Y33.918 E30.12986
G1 X-2.138 Y33.896 E30.14974
G1 X-4.89 Y33.607 E30.2878
G1 X-5.295 Y33.543 E30.30825
G1 X-8.72 Y32.823 E30.48286
G1 X-9.144 Y32.71 E30.50475
G1 X-12.062 Y31.753 E30.65796
G1 X-12.441 Y31.606 E30.67824
G1 X-15.18 Y30.387 E30.82781
G1 X-15.553 Y30.198 E30.84868
G1 X-18.386 Y28.564 E31.01184
G1 X-18.74 Y28.334 E31.0329
G1 X-21.178 Y26.561 E31.1833
G1 X-21.509 Y26.292 E31.20458
G1 X-23.985 Y24.052 E31.37115
G1 X-24.281 Y23.755 E31.39207
G1 X-26.342 Y21.454 E31.54619
G1 X-26.646 Y21.069 E31.57066
G1 X-28.857 Y17.891 E31.76381
G1 X-29.045 Y17.593 E31.78139
G1 X-30.058 Y15.822 E31.88318
G1 X-30.234 Y15.476 E31.90254
G1 X-31.69 Y12.237 E32.07971
G1 X-31.839 Y11.855 E32.10017
G1 X-32.282 Y10.518 E32.17044
G1 X-32.344 Y10.314 E32.18108
G1 X-33.08 Y7.619 E32.32045
G0 F1384.6 X-32.694 Y7.513
G1 F1500 X-32.745 Y7.301 E32.33133
G1 X-33.157 Y5.327 E32.43194
G1 X-33.214 Y4.957 E32.45061
G1 X-33.361 Y3.519 E32.52273
G1 X-33.362 Y3.508 E32.52328
G1 X-33.535 Y1.762 E32.61082
G1 X-33.553 Y1.404 E32.6287
G1 X-33.551 Y-.851 E32.7412
G1 X-33.538 Y-1.151 E32.75618
G1 X-33.219 Y-4.933 E32.94554
G1 X-33.152 Y-5.383 E32.96824
G1 X-32.451 Y-8.658 E33.13533
G1 X-32.355 Y-9.018 E33.15392
G1 X-31.445 Y-11.817 E33.30075
G1 X-31.314 Y-12.158 E33.31898
G1 X-30.209 Y-14.66 E33.45544
G1 X-30.059 Y-14.961 E33.47221
G1 X-28.359 Y-18.005 E33.64616
G1 X-28.129 Y-18.365 E33.66747
G1 X-26.145 Y-21.097 E33.83592
G1 X-25.894 Y-21.406 E33.85578
G1 X-23.753 Y-23.757 E34.01442
G1 X-23.486 Y-24.021 E34.03315
G1 X-21.131 Y-26.119 E34.19051
G1 X-20.847 Y-26.347 E34.20868
G1 X-18.44 Y-28.09 E34.35694
G1 X-18.118 Y-28.298 E34.37607
G1 X-15.284 Y-29.921 E34.539
G1 X-14.945 Y-30.092 E34.55794
G1 X-12.083 Y-31.351 E34.71393
G1 X-11.733 Y-31.484 E34.73261
G1 X-8.732 Y-32.447 E34.88985
G1 X-8.38 Y-32.54 E34.90802
G1 X-5.507 Y-33.15 E35.05455
G1 X-5.128 Y-33.21 E35.07369
G1 X-1.793 Y-33.554 E35.24096
G1 X-1.406 Y-33.573 E35.26029
G1 X1.738 Y-33.557 E35.41715
G1 X2.099 Y-33.537 E35.43518
G1 X4.99 Y-33.231 E35.58022
G1 X5.366 Y-33.171 E35.59922
G1 X8.661 Y-32.464 E35.76735
G1 X9.018 Y-32.368 E35.78579
G1 X11.795 Y-31.466 E35.93146
G1 X12.149 Y-31.33 E35.95038
G1 X15.178 Y-29.98 E36.11583
G1 X15.53 Y-29.799 E36.13557
G1 X18.274 Y-28.194 E36.29417
G1 X18.572 Y-27.999 E36.31194
G1 X20.96 Y-26.264 E36.4592
G1 X21.25 Y-26.03 E36.47779
G1 X23.55 Y-23.964 E36.63204
G1 X23.813 Y-23.702 E36.65056
G1 X25.929 Y-21.364 E36.80788
G1 X26.168 Y-21.07 E36.82678
G1 X28.021 Y-18.531 E36.9836
G1 X28.227 Y-18.216 E37.00238
G1 X29.8 Y-15.505 E37.15875
G1 X29.971 Y-15.171 E37.17747
G1 X31.235 Y-12.353 E37.33155
G1 X31.366 Y-12.017 E37.34955
G1 X32.144 Y-9.679 E37.47248
G1 X32.229 Y-9.381 E37.48794
G1 X32.967 Y-6.302 E37.6459
G1 X33.036 Y-5.923 E37.66512
G1 X33.465 Y-2.593 E37.83263
G1 X33.495 Y-2.19 E37.85279
G1 X33.552 Y1.411 E38.03247
G1 X33.534 Y1.824 E38.05309
G1 X33.299 Y4.186 E38.17151
G1 X33.267 Y4.426 E38.18359
G1 X32.879 Y6.736 E38.30045
G1 X32.837 Y6.949 E38.31129
G1 X32.439 Y8.675 E38.39966
G1 X32.355 Y8.979 E38.41539
G1 X31.441 Y11.79 E38.56286
G1 X31.31 Y12.132 E38.58113
G1 X30.217 Y14.605 E38.71602
G1 X30.067 Y14.905 E38.73276
G1 X28.338 Y18.002 E38.90971
G1 X28.12 Y18.345 E38.92999
G1 X26.626 Y20.428 E39.05788
G1 X26.404 Y20.707 E39.07567
G1 X23.808 Y23.659 E39.27179
G1 X23.504 Y23.967 E39.29338
G1 X21.167 Y26.055 E39.44973
G1 X20.882 Y26.284 E39.46797
G1 X18.56 Y27.968 E39.61107
G1 X18.26 Y28.163 E39.62892
G1 X15.59 Y29.721 E39.78315
G1 X15.259 Y29.892 E39.80174
G1 X12.291 Y31.234 E39.96425
G1 X11.918 Y31.378 E39.98419
G1 X8.766 Y32.4 E40.14951
G1 X8.403 Y32.498 E40.16827
G1 X5.51 Y33.112 E40.31581
G1 X5.132 Y33.171 E40.3349
G1 X1.793 Y33.515 E40.50236
G1 X1.406 Y33.534 E40.5217
G1 X-1.738 Y33.518 E40.67855
G1 X-2.096 Y33.498 E40.69644
G1 X-4.848 Y33.209 E40.83449
G1 X-5.213 Y33.152 E40.85292
G1 X-8.638 Y32.432 E41.02753
G1 X-9.019 Y32.33 E41.04721
G1 X-11.937 Y31.373 E41.20042
G1 X-12.279 Y31.241 E41.21871
G1 X-15.018 Y30.022 E41.36828
G1 X-15.353 Y29.851 E41.38704
G1 X-18.186 Y28.217 E41.55021
G1 X-18.504 Y28.011 E41.56911
G1 X-20.942 Y26.238 E41.71951
G1 X-21.24 Y25.996 E41.73866
G1 X-23.716 Y23.756 E41.90524
G1 X-23.983 Y23.488 E41.92411
G1 X-26.044 Y21.187 E42.07822
G1 X-26.317 Y20.841 E42.10021
G1 X-28.528 Y17.663 E42.29336
G1 X-28.698 Y17.394 E42.30924
G1 X-29.711 Y15.623 E42.41102
G1 X-29.87 Y15.312 E42.42845
G1 X-31.326 Y12.073 E42.60562
G1 X-31.459 Y11.729 E42.62402
G1 X-31.902 Y10.392 E42.69429
G1 X-31.958 Y10.208 E42.70389
G1 X-32.694 Y7.513 E42.84326
G0 F1384.6 X-32.308 Y7.408
G1 F1500 X-32.353 Y7.219 E42.85296
G1 X-32.765 Y5.245 E42.95356
G1 X-32.816 Y4.916 E42.97017
G1 X-32.963 Y3.478 E43.04229
G1 X-32.964 Y3.469 E43.04274
G1 X-33.137 Y1.723 E43.13027
G1 X-33.153 Y1.404 E43.14621
G1 X-33.151 Y-.851 E43.25871
G1 X-33.14 Y-1.117 E43.27199
G1 X-32.821 Y-4.899 E43.46135
G1 X-32.761 Y-5.3 E43.48158
G1 X-32.06 Y-8.575 E43.64867
G1 X-31.974 Y-8.894 E43.66515
G1 X-31.064 Y-11.693 E43.81199
