;FLAVOR:Marlin
;TIME:157
;Filament used: 0.676628m
;Layer height: 1.5
;Generated with Cura_SteamEngine 1.2.3
M140 S70
M104 S250
M109 S250
G28
G1 Z50.00 F400
G92 E0
G1 F200 E3
G92 E0
M132 X Y Z A
M907 X100 Y100 Z50 A100
;LAYER_COUNT:3
;LAYER:0
M107
M204 S2000
G0 F1384.6 X49.991 Y-6.828 Z0.3
;TYPE:SKIRT
G1 F1500 X50.609 Y-6.788 E0.0309
G1 X51.217 Y-6.669 E0.06181
G1 X51.804 Y-6.472 E0.0927
G1 X52.361 Y-6.202 E0.12358
G1 X52.879 Y-5.862 E0.15449
G1 X53.349 Y-5.458 E0.18541
G1 X53.762 Y-4.997 E0.21629
G1 X54.113 Y-4.487 E0.24718
G1 X54.396 Y-3.936 E0.27808
G1 X54.605 Y-3.353 E0.30898
G1 X54.737 Y-2.747 E0.33992
G1 X54.791 Y-2.028 E0.37589
G1 X54.791 Y2.029 E0.5783
G1 X54.751 Y2.647 E0.6092
G1 X54.632 Y3.255 E0.6401
G1 X54.435 Y3.842 E0.67099
G1 X54.165 Y4.399 E0.70188
G1 X53.825 Y4.917 E0.73279
G1 X53.421 Y5.387 E0.76371
G1 X52.96 Y5.8 E0.79459
G1 X52.45 Y6.151 E0.82548
G1 X51.899 Y6.434 E0.85638
G1 X51.316 Y6.643 E0.88728
G1 X50.71 Y6.775 E0.91822
G1 X49.991 Y6.829 E0.95419
G1 X-49.991 Y6.829 E5.94232
G1 X-50.609 Y6.789 E5.97321
G1 X-51.217 Y6.67 E6.00412
G1 X-51.804 Y6.473 E6.03501
G1 X-52.361 Y6.203 E6.06589
G1 X-52.879 Y5.863 E6.09681
G1 X-53.349 Y5.459 E6.12773
G1 X-53.762 Y4.998 E6.15861
G1 X-54.113 Y4.488 E6.18949
G1 X-54.396 Y3.937 E6.2204
G1 X-54.605 Y3.354 E6.25129
G1 X-54.737 Y2.748 E6.28224
G1 X-54.791 Y2.029 E6.31821
G1 X-54.791 Y-2.029 E6.52066
G1 X-54.751 Y-2.647 E6.55156
G1 X-54.632 Y-3.255 E6.58247
G1 X-54.435 Y-3.842 E6.61336
G1 X-54.165 Y-4.399 E6.64424
G1 X-53.825 Y-4.917 E6.67515
G1 X-53.421 Y-5.387 E6.70607
G1 X-52.96 Y-5.8 E6.73695
G1 X-52.45 Y-6.151 E6.76784
G1 X-51.899 Y-6.434 E6.79875
G1 X-51.316 Y-6.643 E6.82964
G1 X-50.71 Y-6.775 E6.86059
G1 X-49.991 Y-6.829 E6.89656
G1 X49.991 Y-6.828 E11.88468
G0 F1384.6 X49.991 Y-6.428
G1 F1500 X50.583 Y-6.388 E11.91428
G1 X51.164 Y-6.269 E11.94387
G1 X51.723 Y-6.073 E11.97342
G1 X52.251 Y-5.803 E12.00301
G1 X52.738 Y-5.465 E12.03259
G1 X53.175 Y-5.064 E12.06218
G1 X53.555 Y-4.609 E12.09175
G1 X53.869 Y-4.106 E12.12133
G1 X54.114 Y-3.566 E12.15092
G1 X54.283 Y-2.997 E12.18053
G1 X54.374 Y-2.411 E12.21012
G1 X54.391 Y-2.028 E12.22924
G1 X54.391 Y2.029 E12.43165
G1 X54.351 Y2.621 E12.46125
G1 X54.232 Y3.201 E12.49079
G1 X54.036 Y3.761 E12.52039
G1 X53.766 Y4.289 E12.54998
G1 X53.428 Y4.776 E12.57955
G1 X53.027 Y5.213 E12.60914
G1 X52.572 Y5.593 E12.63872
G1 X52.069 Y5.907 E12.6683
G1 X51.529 Y6.152 E12.69788
G1 X50.96 Y6.321 E12.7275
G1 X50.375 Y6.412 E12.75703
G1 X49.991 Y6.429 E12.77621
G1 X-49.991 Y6.429 E17.76433
G1 X-50.583 Y6.389 E17.79393
G1 X-51.163 Y6.27 E17.82347
G1 X-51.723 Y6.074 E17.85307
G1 X-52.251 Y5.804 E17.88266
G1 X-52.738 Y5.466 E17.91224
G1 X-53.175 Y5.065 E17.94183
G1 X-53.555 Y4.61 E17.9714
G1 X-53.869 Y4.107 E18.00098
G1 X-54.114 Y3.567 E18.03057
G1 X-54.283 Y2.998 E18.06018
G1 X-54.374 Y2.413 E18.08972
G1 X-54.391 Y2.029 E18.10889
G1 X-54.391 Y-2.029 E18.31135
G1 X-54.351 Y-2.621 E18.34095
G1 X-54.232 Y-3.201 E18.37049
G1 X-54.036 Y-3.761 E18.40009
G1 X-53.766 Y-4.289 E18.42968
G1 X-53.428 Y-4.776 E18.45925
G1 X-53.027 Y-5.213 E18.48884
G1 X-52.572 Y-5.593 E18.51842
G1 X-52.069 Y-5.907 E18.548
G1 X-51.529 Y-6.152 E18.57758
G1 X-50.96 Y-6.321 E18.6072
G1 X-50.375 Y-6.412 E18.63673
G1 X-49.991 Y-6.429 E18.65591
G1 X49.991 Y-6.428 E23.64403
G0 F1384.6 X49.991 Y-6.028
G1 F1500 X50.555 Y-5.988 E23.67224
G1 X51.108 Y-5.869 E23.70046
G1 X51.638 Y-5.673 E23.72865
G1 X52.135 Y-5.405 E23.75683
G1 X52.59 Y-5.069 E23.78504
G1 X52.993 Y-4.672 E23.81327
G1 X53.335 Y-4.222 E23.84147
G1 X53.611 Y-3.729 E23.86965
G1 X53.815 Y-3.201 E23.89789
G1 X53.942 Y-2.651 E23.92605
G1 X53.991 Y-2.028 E23.95723
G1 X53.991 Y2.029 E24.15964
G1 X53.951 Y2.593 E24.18785
G1 X53.832 Y3.146 E24.21607
G1 X53.636 Y3.676 E24.24426
G1 X53.368 Y4.173 E24.27243
G1 X53.032 Y4.628 E24.30065
G1 X52.635 Y5.031 E24.32887
G1 X52.185 Y5.373 E24.35707
G1 X51.692 Y5.649 E24.38526
G1 X51.164 Y5.853 E24.4135
G1 X50.614 Y5.98 E24.44166
G1 X49.991 Y6.029 E24.47284
G1 X-49.991 Y6.029 E29.46096
G1 X-50.555 Y5.989 E29.48917
G1 X-51.108 Y5.87 E29.51739
G1 X-51.638 Y5.674 E29.54558
G1 X-52.135 Y5.406 E29.57375
G1 X-52.59 Y5.07 E29.60197
G1 X-52.993 Y4.673 E29.63019
G1 X-53.335 Y4.223 E29.65839
G1 X-53.611 Y3.73 E29.68658
G1 X-53.815 Y3.202 E29.71482
G1 X-53.942 Y2.652 E29.74298
G1 X-53.991 Y2.029 E29.77416
G1 X-53.991 Y-2.029 E29.97661
G1 X-53.951 Y-2.593 E30.00482
G1 X-53.832 Y-3.146 E30.03304
G1 X-53.636 Y-3.676 E30.06123
G1 X-53.368 Y-4.173 E30.0894
G1 X-53.032 Y-4.628 E30.11762
G1 X-52.635 Y-5.031 E30.14585
G1 X-52.185 Y-5.373 E30.17404
G1 X-51.692 Y-5.649 E30.20223
G1 X-51.164 Y-5.853 E30.23047
G1 X-50.614 Y-5.98 E30.25863
G1 X-49.991 Y-6.029 E30.28981
G1 X49.991 Y-6.028 E35.27793
G0 F1384.6 X49.991 Y-5.628
G1 F1500 X50.526 Y-5.588 E35.3047
G1 X51.049 Y-5.469 E35.33146
G1 X51.548 Y-5.274 E35.35819
G1 X52.013 Y-5.006 E35.38496
G1 X52.433 Y-4.673 E35.4117
G1 X52.799 Y-4.281 E35.43846
G1 X53.102 Y-3.839 E35.4652
G1 X53.337 Y-3.356 E35.49199
G1 X53.497 Y-2.845 E35.51871
G1 X53.58 Y-2.315 E35.54547
G1 X53.591 Y-2.028 E35.5598
G1 X53.591 Y2.029 E35.76221
G1 X53.551 Y2.564 E35.78897
G1 X53.432 Y3.087 E35.81573
G1 X53.237 Y3.586 E35.84246
G1 X52.969 Y4.051 E35.86924
G1 X52.636 Y4.471 E35.89598
G1 X52.244 Y4.837 E35.92273
G1 X51.802 Y5.14 E35.94947
G1 X51.319 Y5.375 E35.97627
G1 X50.808 Y5.535 E36.00298
G1 X50.278 Y5.618 E36.02974
G1 X49.991 Y5.629 E36.04407
G1 X-49.991 Y5.629 E41.0322
G1 X-50.526 Y5.589 E41.05896
G1 X-51.049 Y5.47 E41.08572
G1 X-51.548 Y5.275 E41.11245
G1 X-52.013 Y5.007 E41.13923
G1 X-52.433 Y4.674 E41.16597
G1 X-52.799 Y4.282 E41.19272
G1 X-53.102 Y3.84 E41.21946
G1 X-53.337 Y3.357 E41.24626
G1 X-53.497 Y2.846 E41.27297
G1 X-53.58 Y2.316 E41.29973
G1 X-53.591 Y2.029 E41.31406
G1 X-53.591 Y-2.029 E41.51652
G1 X-53.551 Y-2.564 E41.54328
G1 X-53.432 Y-3.087 E41.57004
G1 X-53.237 Y-3.586 E41.59677
G1 X-52.969 Y-4.051 E41.62355
G1 X-52.636 Y-4.471 E41.65029
G1 X-52.244 Y-4.837 E41.67705
G1 X-51.802 Y-5.14 E41.70378
G1 X-51.319 Y-5.375 E41.73058
G1 X-50.808 Y-5.535 E41.75729
G1 X-50.278 Y-5.618 E41.78406
G1 X-49.991 Y-5.629 E41.79839
G1 X49.991 Y-5.628 E46.78651
G0 F1384.6 X49.991 Y-5.228
G1 F1500 X50.495 Y-5.188 E46.81173
G1 X50.986 Y-5.069 E46.83694
G1 X51.453 Y-4.875 E46.86217
G1 X51.883 Y-4.609 E46.88739
G1 X52.266 Y-4.279 E46.91261
G1 X52.592 Y-3.892 E46.93786
G1 X52.853 Y-3.459 E46.96308
G1 X53.043 Y-2.991 E46.98828
G1 X53.156 Y-2.498 E47.01352
G1 X53.191 Y-2.028 E47.03703
G1 X53.191 Y2.029 E47.23943
G1 X53.151 Y2.533 E47.26466
G1 X53.032 Y3.024 E47.28986
G1 X52.838 Y3.491 E47.31509
G1 X52.572 Y3.921 E47.34032
G1 X52.242 Y4.304 E47.36554
G1 X51.855 Y4.63 E47.39078
G1 X51.422 Y4.891 E47.41601
G1 X50.954 Y5.081 E47.44121
G1 X50.461 Y5.194 E47.46644
G1 X49.991 Y5.229 E47.48995
G1 X-49.991 Y5.229 E52.47808
G1 X-50.495 Y5.189 E52.5033
G1 X-50.986 Y5.07 E52.52851
G1 X-51.453 Y4.876 E52.55373
G1 X-51.883 Y4.61 E52.57896
G1 X-52.266 Y4.28 E52.60418
G1 X-52.592 Y3.893 E52.62943
G1 X-52.853 Y3.46 E52.65465
G1 X-53.043 Y2.992 E52.67985
G1 X-53.156 Y2.499 E52.70508
G1 X-53.191 Y2.029 E52.7286
G1 X-53.191 Y-2.029 E52.93105
G1 X-53.151 Y-2.533 E52.95628
G1 X-53.032 Y-3.024 E52.98148
G1 X-52.838 Y-3.491 E53.00671
G1 X-52.572 Y-3.921 E53.03194
G1 X-52.242 Y-4.304 E53.05716
G1 X-51.855 Y-4.63 E53.0824
G1 X-51.422 Y-4.891 E53.10763
G1 X-50.954 Y-5.081 E53.13283
G1 X-50.461 Y-5.194 E53.15806
G1 X-49.991 Y-5.229 E53.18157
G1 X49.991 Y-5.228 E58.1697
G0 F1384.6 X49.4 Y-1.438
;TYPE:WALL-INNER
G1 F1500 X49.4 Y1.438 E58.31318
G1 X-49.4 Y1.438 E63.24233
G1 X-49.4 Y-1.438 E63.38582
G1 X49.4 Y-1.438 E68.31497
G0 F1384.6 X49.8 Y-1.838
;TYPE:WALL-OUTER
G1 F1500 X49.8 Y1.838 E68.49836
G1 X-49.8 Y1.838 E73.46743
G1 X-49.8 Y-1.838 E73.65082
G1 X49.8 Y-1.838 E78.61989
G0 F1384.6 X49.8 Y-1.638
G0 X49.2 Y-1.238
G0 X48.694 Y-1.086
;TYPE:SKIN
G1 F1500 X49.047 Y-.732 E78.64483
G1 X49.047 Y-.166 E78.67307
G1 X48.128 Y-1.086 E78.73794
G1 X47.562 Y-1.086 E78.76618
G1 X49.047 Y0.398 E78.87092
G1 X49.047 Y0.964 E78.89916
G1 X46.997 Y-1.086 E79.0438
G1 X46.431 Y-1.086 E79.07204
G1 X48.603 Y1.086 E79.22528
G1 X48.038 Y1.086 E79.25347
G1 X45.865 Y-1.086 E79.40675
G1 X45.3 Y-1.086 E79.43494
G1 X47.472 Y1.086 E79.58819
G1 X46.906 Y1.086 E79.61642
G1 X44.734 Y-1.086 E79.76967
G1 X44.168 Y-1.086 E79.79791
G1 X46.34 Y1.086 E79.95115
G1 X45.775 Y1.086 E79.97934
G1 X43.603 Y-1.086 E80.13259
G1 X43.037 Y-1.086 E80.16083
G1 X45.209 Y1.086 E80.31407
G1 X44.643 Y1.086 E80.34231
G1 X42.471 Y-1.086 E80.49556
G1 X41.905 Y-1.086 E80.52379
G1 X44.078 Y1.086 E80.67708
G1 X43.512 Y1.086 E80.70531
G1 X41.34 Y-1.086 E80.85856
G1 X40.774 Y-1.086 E80.8868
G1 X42.946 Y1.086 E81.04004
G1 X42.381 Y1.086 E81.06823
G1 X40.208 Y-1.086 E81.22151
G1 X39.643 Y-1.086 E81.2497
G1 X41.815 Y1.086 E81.40295
G1 X41.249 Y1.086 E81.43119
G1 X39.077 Y-1.086 E81.58443
G1 X38.511 Y-1.086 E81.61267
G1 X40.684 Y1.086 E81.76595
G1 X40.118 Y1.086 E81.79419
G1 X37.946 Y-1.086 E81.94744
G1 X37.38 Y-1.086 E81.97567
G1 X39.552 Y1.086 E82.12892
G1 X38.987 Y1.086 E82.15711
G1 X36.814 Y-1.086 E82.31039
G1 X36.249 Y-1.086 E82.33858
G1 X38.421 Y1.086 E82.49182
G1 X37.855 Y1.086 E82.52006
G1 X35.683 Y-1.086 E82.67331
G1 X35.117 Y-1.086 E82.70155
G1 X37.289 Y1.086 E82.85479
G1 X36.724 Y1.086 E82.88298
G1 X34.552 Y-1.086 E83.03623
G1 X33.986 Y-1.086 E83.06446
G1 X36.158 Y1.086 E83.21771
G1 X35.592 Y1.086 E83.24595
G1 X33.42 Y-1.086 E83.3992
G1 X32.855 Y-1.086 E83.42738
G1 X35.027 Y1.086 E83.58063
G1 X34.461 Y1.086 E83.60887
G1 X32.289 Y-1.086 E83.76211
G1 X31.723 Y-1.086 E83.79035
G1 X33.895 Y1.086 E83.9436
G1 X33.33 Y1.086 E83.97179
G1 X31.157 Y-1.086 E84.12507
G1 X30.592 Y-1.086 E84.15326
G1 X32.764 Y1.086 E84.3065
G1 X32.198 Y1.086 E84.33474
G1 X30.026 Y-1.086 E84.48799
G1 X29.46 Y-1.086 E84.51622
G1 X31.633 Y1.086 E84.66951
G1 X31.067 Y1.086 E84.69774
G1 X28.895 Y-1.086 E84.85099
G1 X28.329 Y-1.086 E84.87923
G1 X30.501 Y1.086 E85.03247
G1 X29.936 Y1.086 E85.06066
G1 X27.763 Y-1.086 E85.21394
G1 X27.198 Y-1.086 E85.24213
G1 X29.37 Y1.086 E85.39538
G1 X28.804 Y1.086 E85.42362
G1 X26.632 Y-1.086 E85.57686
G1 X26.066 Y-1.086 E85.6051
G1 X28.239 Y1.086 E85.75838
G1 X27.673 Y1.086 E85.78662
G1 X25.501 Y-1.086 E85.93987
G1 X24.935 Y-1.086 E85.9681
G1 X27.107 Y1.086 E86.12135
G1 X26.541 Y1.086 E86.14959
G1 X24.369 Y-1.086 E86.30283
G1 X23.804 Y-1.086 E86.33102
G1 X25.976 Y1.086 E86.48427
G1 X25.41 Y1.086 E86.51251
G1 X23.238 Y-1.086 E86.66575
G1 X22.672 Y-1.086 E86.69399
G1 X24.844 Y1.086 E86.84724
G1 X24.279 Y1.086 E86.87542
G1 X22.106 Y-1.086 E87.02871
G1 X21.541 Y-1.086 E87.05689
G1 X23.713 Y1.086 E87.21014
G1 X23.147 Y1.086 E87.23838
G1 X20.975 Y-1.086 E87.39162
G1 X20.409 Y-1.086 E87.41986
G1 X22.582 Y1.086 E87.57314
G1 X22.016 Y1.086 E87.60138
G1 X19.844 Y-1.086 E87.75463
G1 X19.278 Y-1.086 E87.78287
G1 X21.45 Y1.086 E87.93611
G1 X20.885 Y1.086 E87.9643
G1 X18.712 Y-1.086 E88.11758
G1 X18.147 Y-1.086 E88.14577
G1 X20.319 Y1.086 E88.29902
G1 X19.753 Y1.086 E88.32725
G1 X17.581 Y-1.086 E88.4805
G1 X17.015 Y-1.086 E88.50874
G1 X19.188 Y1.086 E88.66202
G1 X18.622 Y1.086 E88.69026
G1 X16.45 Y-1.086 E88.8435
G1 X15.884 Y-1.086 E88.87174
G1 X18.056 Y1.086 E89.02499
G1 X17.49 Y1.086 E89.05323
G1 X15.318 Y-1.086 E89.20647
G1 X14.753 Y-1.086 E89.23466
G1 X16.925 Y1.086 E89.38791
G1 X16.359 Y1.086 E89.41614
G1 X14.187 Y-1.086 E89.56939
G1 X13.621 Y-1.086 E89.59763
G1 X15.793 Y1.086 E89.75088
G1 X15.228 Y1.086 E89.77906
G1 X13.056 Y-1.086 E89.93231
G1 X12.49 Y-1.086 E89.96055
G1 X14.662 Y1.086 E90.11379
G1 X14.096 Y1.086 E90.14203
G1 X11.924 Y-1.086 E90.29528
G1 X11.358 Y-1.086 E90.32352
G1 X13.531 Y1.086 E90.4768
G1 X12.965 Y1.086 E90.50504
G1 X10.793 Y-1.086 E90.65828
G1 X10.227 Y-1.086 E90.68652
G1 X12.399 Y1.086 E90.83977
G1 X11.834 Y1.086 E90.86795
G1 X9.661 Y-1.086 E91.02124
G1 X9.096 Y-1.086 E91.04942
G1 X11.268 Y1.086 E91.20267
G1 X10.702 Y1.086 E91.23091
G1 X8.53 Y-1.086 E91.38415
G1 X7.964 Y-1.086 E91.41239
G1 X10.137 Y1.086 E91.56567
G1 X9.571 Y1.086 E91.59391
G1 X7.399 Y-1.086 E91.74716
G1 X6.833 Y-1.086 E91.7754
G1 X9.005 Y1.086 E91.92864
G1 X8.44 Y1.086 E91.95683
G1 X6.267 Y-1.086 E92.11011
G1 X5.702 Y-1.086 E92.1383
G1 X7.874 Y1.086 E92.29155
G1 X7.308 Y1.086 E92.31978
G1 X5.136 Y-1.086 E92.47303
G1 X4.57 Y-1.086 E92.50127
G1 X6.742 Y1.086 E92.65451
G1 X6.177 Y1.086 E92.6827
G1 X4.005 Y-1.086 E92.83595
G1 X3.439 Y-1.086 E92.86419
G1 X5.611 Y1.086 E93.01743
G1 X5.045 Y1.086 E93.04567
G1 X2.873 Y-1.086 E93.19892
G1 X2.307 Y-1.086 E93.22715
G1 X4.48 Y1.086 E93.38044
G1 X3.914 Y1.086 E93.40867
G1 X1.742 Y-1.086 E93.56192
G1 X1.176 Y-1.086 E93.59016
G1 X3.348 Y1.086 E93.7434
G1 X2.783 Y1.086 E93.77159
G1 X0.61 Y-1.086 E93.92487
G1 X0.045 Y-1.086 E93.95306
G1 X2.217 Y1.086 E94.10631
G1 X1.651 Y1.086 E94.13455
G1 X-.52 Y-1.086 E94.28776
G1 X-1.086 Y-1.086 E94.316
G1 X1.086 Y1.086 E94.46924
G1 X0.52 Y1.086 E94.49748
G1 X-1.651 Y-1.086 E94.65069
G1 X-2.217 Y-1.086 E94.67893
G1 X-0.045 Y1.086 E94.83217
G1 X-.61 Y1.086 E94.86036
G1 X-2.783 Y-1.086 E95.01364
G1 X-3.348 Y-1.086 E95.04183
G1 X-1.176 Y1.086 E95.19508
G1 X-1.742 Y1.086 E95.22332
G1 X-3.914 Y-1.086 E95.37656
G1 X-4.48 Y-1.086 E95.4048
G1 X-2.307 Y1.086 E95.55808
G1 X-2.873 Y1.086 E95.58632
G1 X-5.045 Y-1.086 E95.73957
G1 X-5.611 Y-1.086 E95.7678
G1 X-3.439 Y1.086 E95.92105
G1 X-4.005 Y1.086 E95.94929
G1 X-6.177 Y-1.086 E96.10253
G1 X-6.742 Y-1.086 E96.13072
G1 X-4.57 Y1.086 E96.28397
G1 X-5.136 Y1.086 E96.31221
G1 X-7.308 Y-1.086 E96.46545
G1 X-7.874 Y-1.086 E96.49369
G1 X-5.702 Y1.086 E96.64694
G1 X-6.267 Y1.086 E96.67513
G1 X-8.44 Y-1.086 E96.82841
G1 X-9.005 Y-1.086 E96.85659
G1 X-6.833 Y1.086 E97.00984
G1 X-7.399 Y1.086 E97.03808
G1 X-9.571 Y-1.086 E97.19133
G1 X-10.137 Y-1.086 E97.21956
G1 X-7.964 Y1.086 E97.37284
G1 X-8.53 Y1.086 E97.40108
G1 X-10.702 Y-1.086 E97.55433
G1 X-11.268 Y-1.086 E97.58257
G1 X-9.096 Y1.086 E97.73581
G1 X-9.661 Y1.086 E97.764
G1 X-11.834 Y-1.086 E97.91728
G1 X-12.399 Y-1.086 E97.94547
G1 X-10.227 Y1.086 E98.09872
G1 X-10.793 Y1.086 E98.12696
G1 X-12.965 Y-1.086 E98.2802
G1 X-13.531 Y-1.086 E98.30844
G1 X-11.358 Y1.086 E98.46172
G1 X-11.924 Y1.086 E98.48996
G1 X-14.096 Y-1.086 E98.64321
G1 X-14.662 Y-1.086 E98.67144
G1 X-12.49 Y1.086 E98.82469
G1 X-13.056 Y1.086 E98.85293
G1 X-15.228 Y-1.086 E99.00617
G1 X-15.793 Y-1.086 E99.03436
G1 X-13.621 Y1.086 E99.18761
G1 X-14.187 Y1.086 E99.21585
G1 X-16.359 Y-1.086 E99.36909
G1 X-16.925 Y-1.086 E99.39733
G1 X-14.753 Y1.086 E99.55058
G1 X-15.318 Y1.086 E99.57876
G1 X-17.49 Y-1.086 E99.73201
G1 X-18.056 Y-1.086 E99.76025
G1 X-15.884 Y1.086 E99.91349
G1 X-16.45 Y1.086 E99.94173
G1 X-18.622 Y-1.086 E100.09498
G1 X-19.188 Y-1.086 E100.12322
G1 X-17.015 Y1.086 E100.2765
G1 X-17.581 Y1.086 E100.30474
G1 X-19.753 Y-1.086 E100.45798
G1 X-20.319 Y-1.086 E100.48622
G1 X-18.147 Y1.086 E100.63947
G1 X-18.712 Y1.086 E100.66765
G1 X-20.885 Y-1.086 E100.82094
G1 X-21.45 Y-1.086 E100.84912
G1 X-19.278 Y1.086 E101.00237
G1 X-19.844 Y1.086 E101.03061
G1 X-22.016 Y-1.086 E101.18385
G1 X-22.582 Y-1.086 E101.21209
G1 X-20.409 Y1.086 E101.36537
G1 X-20.975 Y1.086 E101.39361
G1 X-23.147 Y-1.086 E101.54686
G1 X-23.713 Y-1.086 E101.5751
G1 X-21.541 Y1.086 E101.72834
G1 X-22.106 Y1.086 E101.75653
G1 X-24.279 Y-1.086 E101.90981
G1 X-24.844 Y-1.086 E101.938
G1 X-22.672 Y1.086 E102.09125
G1 X-23.238 Y1.086 E102.11948
G1 X-25.41 Y-1.086 E102.27273
G1 X-25.976 Y-1.086 E102.30097
G1 X-23.804 Y1.086 E102.45421
G1 X-24.369 Y1.086 E102.4824
G1 X-26.541 Y-1.086 E102.63565
G1 X-27.107 Y-1.086 E102.66389
